outputs/icons/device/ethernet_sharp.svg

<svg width="1200" height="1200" viewBox="0 0 1200 1200" fill="none" xmlns="http://www.w3.org/2000/svg"><g clip-path="url(#clip0_833_2193)"><path d="M397.5 314L320.5 250L50 576L320.5 902L397.5 838L180 576L397.5 314ZM359 626H459V526H359V626ZM859 526H759V626H859V526ZM559 626H659V526H559V626ZM897.5 250L820.5 314L1038 576L820.5 838L897.5 902L1168 576L897.5 250Z" fill="#1D1E23"/></g><defs><clipPath id="clip0_833_2193"><path width="24" fill="white" d="M0 0H1200V1200H0V0z"/></clipPath></defs></svg>

<svg xmlns="http://www.w3.org/2000/svg" width="1200" height="1200" fill="none"><g clip-path="url(#a)"><path fill="#000" d="m397.5 314-77-64L50 576l270.5 326 77-64L180 576zM359 626h100V526H359zm500-100H759v100h100zM559 626h100V526H559zm338.5-376-77 64L1038 576 820.5 838l77 64L1168 576z"/></g><defs><clipPath id="a"><path fill="#fff" d="M0 0h1200v1200H0z"/></clipPath></defs></svg>
